X: 1134
T: Dawning Of The Day, The
N: &quot;(note Correction)&quot; ~  ~ Huh! (little difference)
M: 4/4
L: 1/8
R: march
K: D Major
DE |\ 
F2 F2 F2 EF | A2 A2 B2 AF | D2 E2 D2 D2 | D6 A2 | 
B3 A B2 d2 | F3 E D2 FG | AF- F2 d2 F2 | E6 FA | 
B3 A B2 d2 | F3 E D2 FG | AF- F2 d2 F2 | E6 DE | 
F2 F2 F2 EF | A2 A2 B2 AF | D2 E2 D2 D2 | D6 |]
